X:179
T:The Reeking of the Turf
B:Terry "Cuz" Teahan "Sliabh Luachra on Parade" 1980
Z:Patrick Cavanagh
M:4/4
L:1/8
R:Reel
K:D
|: A2FA DAFA | dfab affa | b2bb afdf | gefd efdB | 
A2FA DAFA | dfab affa | b2bb afdf | gbaf d2[1]z2 :|[2] z
|: f | aff2 afef | defa b2bb | aff2 afdf | gbag e2fg | 
aff2 afef | defa b2bc' | d'c'ba bc'd'b | afef d3 :|| 

